X:1
T:Title
%%score { ( 1 4 ) | ( 2 3 ) }
L:1/8
Q:1/4=100
M:6/8
K:Bb
V:1 treble nm="Grand Piano"
V:4 treble 
V:2 bass 
V:3 bass 
V:1
 [DF][DF][DF] [DF]2 [DF] | G3 .B3 | [=Ec][Ec][Ec] [Ed]2 [EB] | c6 | ddd c2 B | G3 .B3 | %6
w: E.~S.~Lorenz * * * *||||||
 AAA [=EA]2 [EG] | F6 | .A3 FGA | [DB]2 [DF] .[DB]3 | c3 d3 | e6 | [Fd]2 d [Ec]BD | %13
w: |||||||
 [DF]2 G .[DF]3 | [Fd]2 d [Ec]BD | [DF]2 G .[DF]3 | [B,EG]3 [CFA]3 | [B,FB]3 [Ge]3 | dcB c2 A | %19
w: ||||||
 [DB]6 |] %20
w: |
V:2
 [B,,B,][B,,B,][B,,B,] [B,,B,]2 [B,,B,] | B,3 z3 | [C,G,][C,G,][C,A,] [C,B,]2 [C,G,] | [F,A,E]6 | %4
 [B,F][B,F][B,F] [B,E]2 [B,D] | [B,E]3 .[EG]3 | [F,CF][F,CF][F,CF] [C,C]2 [C,B,] | [F,A,]6 | %8
 .[F,CE]3 [F,A,E][F,B,E][F,CE] | [B,,B,]2 [B,,B,] .[B,,F,]3 | [F,A,F][F,A,][F,A,] [F,B,F]2 [F,B,] | %11
 [F,C]2 F, .F,3 | z2 F z DB, | z2 E .B,,3 | z2 F z DB, | z2 E .B,,3 | E,3 E,3 | D,3 [C,B,]3 | %18
 [F,B,F][F,A,E][F,B,D] [F,A,E]2 [F,CE] | [B,,B,]6 |] %20
V:3
 x6 | [E,E]3- [E,G,E]3 | x6 | x6 | x6 | E,6 | x6 | x6 | x6 | x6 | x6 | x6 | B,,3 B,,3 | B,,3 z3 | %14
 B,,3 B,,3 | B,,3 z3 | x6 | x6 | x6 | x6 |] %20
V:4
 x6 | x6 | x6 | x6 | x6 | x6 | x6 | x6 | x6 | x6 | z FF z2 F | A2 [CA] .[CA]3 | x6 | x6 | x6 | x6 | %16
 x6 | x6 | x6 | x6 |] %20

